X:1
T:St Louis Blues
T:St Louis Blues version 1b
T:W C Handy
C:W C Handy
%%score 1 2 3
L:1/8
M:4/4
K:Bb
V:1 treble nm="Flute" snm="Fl."
V:2 treble transpose=-2 nm="B♭ Clarinet" snm="B♭ Cl."
V:3 treble transpose=-2 nm="B♭ Clarinet" snm="B♭ Cl."
V:1
 fff | f f3- f4 | z ee=e f _d3 | c8- | c4- ceee | e e3- e4 | z ee=e f c3 | B4 c4 | f4{c^cd} e4 | %9
 _A8 | G8 | F4- F^FG_A | c^cdf- f4 | G4- G^FGB | e8 | z ^cdf- f4 | z ^cdb- b4 | F4- F^FG^G | %18
 A4 F4 | F8 | D^c'd'b'- b'fff |{/^c} dfdB- B4 | z ^FGB _d3 c | B8- | B^cdb- b4 | z GBc- c c3 | %26
 z ^FGB _d3 c | B8- | B^c'd'b'- b'4 | z2 E2 z2 E2 | z2 FF F3 F | D2 ^C2 D2 F2 | B^cdb- b z z2 | %33
 _d d3- d4 | E4 B _G3 | A8- | A4- Accc | c c3 c4 | z2 cc c A3 | _D3 _d b2 f2 | _d'3 b f2 _dd | %41
 _d d3- d4 | _D6 =E2 | F3 =E F2 _E2 | C3 E F2 c2 | c c2 c- c4 | c2 cc c2 A2 | F4 =E4 | A4 A2 ^cd | %49
 B2 ^cd B2 cd | B2 ^cd BcdB | B8- | B4- B2 ^cd | c2 BG B2 c_d | c2 BG B^cdB | B8- | B4- B2 ^cd | %57
 f2 ^cd FcdE- | E^cdF- FcdB | B8 | z6 ^cd | B2 ^cd B2 cd | B2 ^cd BcdB | B8- | B4- B2 ^cd | %65
 c2 BG B2 c_d | c2 BG B^cdB | B8- | B4- B2 ^cd | f2 ^cd FcdE- | E^cdF- FcdB | B8- | BB=ef b z z2 |] %73
V:2
[K:C] z2 z | _e e3- e4 | C8 | B8- | B4- Bddd | d d3- d4 | D8 | G4 c4 | B4 B4 |{/^d} egec- c4 | %10
 z ^GAc _e3 d | c8- | c6 z2 | z Acd- d4 | z Acd _e3 d | c8- | c4 z4 | BdBG- G2 z2 | z2 _ee e3 d | %19
 c8- | c8 | _B8 | A4 c3 c | z ^deg- g4 | c2 Gg- g4 | F8 | F2 F2 c3 c | G8 | C6 z2 | BdBG- G4 | %30
 z2 _ee e3 d | c8- | c2 G2 C2 z2 | C3 c c2 C2 | _A,6 ^F,2 | G,3 B, D2 B,2 | G,3 B, D2 B,2 | %37
 G,3 B, D2 B,2 | G,3 B, D2 B,2 | C3 C _E2 C2 | C3 C _E2 C2 | C>B, C>_E ^F>G B>c | z ccc c A3 | %43
 B8- | B4- B2 z2 | G,3 B, G2 G,2 | G2 BB B2 G2 | E4 C2 D2- | D2 ^DE F2 ^FG | E2 ^FG E2 FG | %50
 E2 ^FG EFGE | G2 AA G2 AA | G2 AA _B2 ^FG | A2 F2 A2 F2 | A2 F2 A2 F2 | G2 AA G2 AA | %56
 G2 AA G2 z2 | E8 | D4 F4 | c^DEc DEcD | Ec^DE c2 ^FG | E2 ^FG E2 FG | E2 ^FG EFGE | G2 AA G2 AA | %64
 G2 AA _B2 ^FG | A2 F2 A2 F2 | A2 F2 A2 F2 | G2 AA G2 AA | G2 AA G2 z2 | E8 | D4 F4 | %71
 c^DEC ^FGc^f | c4- c z z2 |] %73
V:3
[K:C] z2 z | C3 C G2 C2 | _A,8 | G,3 B, F2 B,2 | G,3 B, D2 G,2 | G,3 B, D2 G,2 | B,8 | %7
 _E2 E2 ^F2 F2 | G2 D2 G4 | D2 G2 E2 E2 | F8 | E2 ^DE E4 | _B6 B2 | C4 z4 | z4 c3 c | E6 G,2 | %16
 G,6 E2 | F8 | z2 FF F3 F | E2 ^DE G2 ^de- | e6 E2 | C2 C2 E2 E2 | F4 A3 A | C2 Ee- e4 | %24
 C2 Ee _B2 B2 | A8 | F,2 C2 F2 A2 | E2 ^DE E2 ^de | e6 E2 | D2 B,2 G,2 B,2 | G,2 B,2 G,2 B,2 | %31
 C2 A,2 G,2 E,2 | c2 z2 z ggg | g g3- g4 | z ff^f g _e3 | d8- | d4- dfff | f f3- f4 | z2 f^f g d3 | %39
 c8- | c4 z2 gg | g g3- g4 | z ff^f g _e3 | d8- | d4 z2 f2 | f f2 f- f4 | z2 f^f g2 d2 | c4 d4 | %48
 g4- g2 z2 | C2 C2 C2 C2 | C2 C2 C2 C2 | E2 FF E2 FF | E2 FF G z z2 | F2 A2 F2 A2 | F2 A2 F2 A2 | %55
 E2 FF E2 FF | E2 FF E2 z2 | C8 | G,4 G,4 | C^DEc DEcD | Ec^DE c2 ^FG | C2 C2 C2 C2 | C2 C2 C2 C2 | %63
 E2 FF E2 FF | E2 FF G z z2 | F2 A2 F2 A2 | F2 A2 F2 A2 | E2 FF E2 FF | E2 FF E2 z2 | C8 | %70
 G,4 G,4 | C^F,G,C ^DECD | EG^de g z z2 |] %73

